X:26
T:Mice in the Cupboard
T:Willie Coleman's
R:jig
Z:id:hn-jig-26
M:6/8
K:G
~B3 AGE|GED GBd|edB dgb|age dBA|BAG AGE|GED GBd|edB dBA|BGG G3:|
|:~g3 edB|dgb age|~g3 edB|GBd e2d|gfg edB|dgb age|~d3 gdB|AGE G3:|
<end>
<start>
